X: 1072
T: Pat Murphy's Meadow (A33)
N: page A33
N: pentatonic
M: 3/4
L: 1/4
K: C
"C" E|E2 G|c2 A|G2 E|\
D2 C/C/|"F"A,2 C|C2 D|
"C"C3-|C2 D|E2 G|c2 e|\
"G7"dcd|"Am"e2 d/d/|"C"c2 A|
G2 C|"G7"D3-|D2 D|\
"C"E2 G|c2 e|"G7"dcd|
"Am"e2 d|"C"c2 A|G2 A|\
"G7"D3-|D2 C/D/|"C"E2 G|
"F" c2 A|"C"G E2|D2C|"F"A,2 C|C2 D|"C"C3-|C2|
